packages/datatrak-web/public/tupaia-logo-dark.svg

<svg fill="none" height="43" viewBox="0 0 105 43" width="105" xmlns="http://www.w3.org/2000/svg"><path d="m82.4027 10.8608c3.0334 0 5.5102-2.43812 5.5102-5.43039s-2.4768-5.43041-5.5102-5.43041-5.5102 2.43814-5.5102 5.43041 2.4768 5.43039 5.5102 5.43039z" fill="#ec632d"/><path d="m81.8461 15.2106s.5566 1.1083 1.141 0l4.7866-9.28155s.5566-1.10825-.6679-1.10825h-9.3785s-1.2523 0-.6679 1.10825z" fill="#ec632d"/><path d="m82.4027 9.39223c2.2263 0 4.0352-1.77319 4.0352-3.96198s-1.8089-3.96199-4.0352-3.96199c-2.2264 0-4.0353 1.7732-4.0353 3.96199s1.8089 3.96198 4.0353 3.96198z" fill="#fff"/><g fill="#000"><path clip-rule="evenodd" d="m81.4898 3.02539h1.8535v1.49613h1.5306v1.81753h-1.5306v1.49613h-1.8535v-1.49613h-1.5584v-1.81753h1.5584z" fill-rule="evenodd"/><path d="m0 10.9163v4.2113h8.20965v21.971h4.59185v-21.971h8.2096v-4.2113z"/><path d="m29.5826 28.6483c0 3.02-1.8089 4.8209-4.397 4.8209-2.6717 0-4.1744-1.7455-4.1744-4.7655v-11.0548h-4.4806v12.3847c0 4.5438 2.5603 7.0928 6.9574 7.0928 3.0334 0 4.8423-1.1914 6.0946-3.0477v3.02h4.4805v-19.4498h-4.4805z"/><path d="m52.9592 27.3736c0 3.8789-2.5047 6.2616-5.5937 6.2616-3.0334 0-5.705-2.4658-5.705-6.2616 0-3.7957 2.6716-6.2616 5.705-6.2616s5.5937 2.4382 5.5937 6.2616zm4.564 0c0-6.4832-4.4805-10.1404-9.1002-10.1404-3.1447 0-5.1763 1.6346-6.6234 3.6572v-3.2417h-4.5083v25.3512h4.4805v-8.9214c1.3636 1.8009 3.3952 3.0477 6.6234 3.0477 4.6753 0 9.128-3.2693 9.128-9.7526z"/><path d="m72.6624 30.0616c0 2.4382-2.2264 4.1005-5.1763 4.1005-2.115 0-3.7848-1.0251-3.7848-2.8814v-.0831c0-1.9949 1.6698-3.1308 4.4806-3.1308 1.7532 0 3.3395.3325 4.4805.7757zm4.3414 7.0374v-11.5258c0-5.2087-2.8108-8.2287-8.5993-8.2287-3.1725 0-5.2876.6649-7.4304 1.6346l1.2245 3.5741c1.781-.748 3.3951-1.219 5.5937-1.219 3.1168 0 4.8144 1.4684 4.8144 4.1559v.471c-1.5306-.471-3.0334-.8035-5.3989-.8035-4.564 0-7.9313 2.0503-7.9313 6.2616v.0831c0 3.9066 3.256 5.6244 6.9573 5.6244 2.9499 0 5.0093-.8312 6.3173-2.4104v2.3827z"/><path d="m84.6568 17.6489h-4.4805v19.4498h4.4805z"/><path d="m100.686 30.0611c0 2.4382-2.2259 4.1005-5.1758 4.1005-2.115 0-3.7848-1.0251-3.7848-2.8814v-.0831c0-1.9949 1.6698-3.1308 4.4805-3.1308 1.7533 0 3.3395.3325 4.4801.7758zm4.314 7.0374v-11.5258c0-5.2087-2.811-8.2287-8.5993-8.2287-3.1725 0-5.2875.6649-7.4304 1.6347l1.2245 3.5741c1.7811-.7481 3.3952-1.2191 5.5937-1.2191 3.1169 0 4.8145 1.4684 4.8145 4.1559v.471c-1.5307-.471-3.0334-.8035-5.3989-.8035-4.564 0-7.9314 2.0503-7.9314 6.2616v.0832c0 3.9065 3.256 5.6243 6.9573 5.6243 2.9499 0 5.0093-.8312 6.317-2.4104v2.3827z"/></g></svg>

<svg width="105" height="43" viewBox="0 0 105 43" fill="none" xmlns="http://www.w3.org/2000/svg">
<path d="M82.4027 10.8608C85.4361 10.8608 87.9129 8.42268 87.9129 5.43041C87.9129 2.43814 85.4361 0 82.4027 0C79.3693 0 76.8925 2.43814 76.8925 5.43041C76.8925 8.42268 79.3693 10.8608 82.4027 10.8608Z" fill="#EC632D"/>
<path d="M81.8461 15.2106C81.8461 15.2106 82.4027 16.3189 82.9871 15.2106L87.7737 5.92905C87.7737 5.92905 88.3303 4.8208 87.1058 4.8208H77.7273C77.7273 4.8208 76.475 4.8208 77.0594 5.92905L81.8461 15.2106Z" fill="#EC632D"/>
<path d="M82.4027 9.39223C84.629 9.39223 86.4379 7.61904 86.4379 5.43025C86.4379 3.24146 84.629 1.46826 82.4027 1.46826C80.1763 1.46826 78.3674 3.24146 78.3674 5.43025C78.3674 7.61904 80.1763 9.39223 82.4027 9.39223Z" fill="white"/>
<path fill-rule="evenodd" clip-rule="evenodd" d="M81.4898 3.02539H83.3433V4.52152H84.8739V6.33905H83.3433V7.83518H81.4898V6.33905H79.9314V4.52152H81.4898V3.02539Z" fill="black"/>
<path d="M0 10.9163V15.1276H8.20965V37.0986H12.8015V15.1276H21.0111V10.9163H0Z" fill="black"/>
<path d="M29.5826 28.6483C29.5826 31.6683 27.7737 33.4692 25.1856 33.4692C22.5139 33.4692 21.0112 31.7237 21.0112 28.7037V17.6489H16.5306V30.0336C16.5306 34.5774 19.0909 37.1264 23.488 37.1264C26.5214 37.1264 28.3303 35.935 29.5826 34.0787V37.0987H34.0631V17.6489H29.5826V28.6483Z" fill="black"/>
<path d="M52.9592 27.3736C52.9592 31.2525 50.4545 33.6352 47.3655 33.6352C44.3321 33.6352 41.6605 31.1694 41.6605 27.3736C41.6605 23.5779 44.3321 21.112 47.3655 21.112C50.3989 21.112 52.9592 23.5502 52.9592 27.3736ZM57.5232 27.3736C57.5232 20.8904 53.0427 17.2332 48.423 17.2332C45.2783 17.2332 43.2467 18.8678 41.7996 20.8904V17.6487H37.2913V42.9999H41.7718V34.0785C43.1354 35.8794 45.167 37.1262 48.3952 37.1262C53.0705 37.1262 57.5232 33.8569 57.5232 27.3736Z" fill="black"/>
<path d="M72.6624 30.0616C72.6624 32.4998 70.436 34.1621 67.4861 34.1621C65.3711 34.1621 63.7013 33.137 63.7013 31.2807V31.1976C63.7013 29.2027 65.3711 28.0668 68.1819 28.0668C69.9351 28.0668 71.5214 28.3993 72.6624 28.8425V30.0616ZM77.0038 37.099V25.5732C77.0038 20.3645 74.193 17.3445 68.4045 17.3445C65.232 17.3445 63.1169 18.0094 60.9741 18.9791L62.1986 22.5532C63.9796 21.8052 65.5937 21.3342 67.7923 21.3342C70.9091 21.3342 72.6067 22.8026 72.6067 25.4901V25.9611C71.0761 25.4901 69.5733 25.1576 67.2078 25.1576C62.6438 25.1576 59.2765 27.2079 59.2765 31.4192V31.5023C59.2765 35.4089 62.5325 37.1267 66.2338 37.1267C69.1837 37.1267 71.2431 36.2955 72.5511 34.7163V37.099H77.0038Z" fill="black"/>
<path d="M84.6568 17.6489H80.1763V37.0987H84.6568V17.6489Z" fill="black"/>
<path d="M100.686 30.0611C100.686 32.4993 98.4601 34.1616 95.5102 34.1616C93.3952 34.1616 91.7254 33.1365 91.7254 31.2802V31.1971C91.7254 29.2022 93.3952 28.0663 96.2059 28.0663C97.9592 28.0663 99.5454 28.3988 100.686 28.8421V30.0611ZM105 37.0985V25.5727C105 20.364 102.189 17.344 96.4007 17.344C93.2282 17.344 91.1132 18.0089 88.9703 18.9787L90.1948 22.5528C91.9759 21.8047 93.59 21.3337 95.7885 21.3337C98.9054 21.3337 100.603 22.8021 100.603 25.4896V25.9606C99.0723 25.4896 97.5696 25.1571 95.2041 25.1571C90.6401 25.1571 87.2727 27.2074 87.2727 31.4187V31.5019C87.2727 35.4084 90.5287 37.1262 94.23 37.1262C97.1799 37.1262 99.2393 36.295 100.547 34.7158V37.0985H105Z" fill="black"/>
</svg>
